src/assets/duotone/ArrowBottom.svg

<svg width="24" height="24" viewBox="0 0 24 24"  xmlns="http://www.w3.org/2000/svg">
<path d="M9.33017 6H14.6702C17.9902 6 19.3402 8.35 17.6902 11.22L16.9502 12.5C16.7702 12.81 16.4402 13 16.0802 13H7.92017C7.56017 13 7.23017 12.81 7.05017 12.5L6.31017 11.22C4.66017 8.35 6.01017 6 9.33017 6Z" />
<path opacity="0.4" d="M8.79006 14H15.2201C15.6101 14 15.8501 14.42 15.6501 14.75L15.0101 15.85C13.3601 18.72 10.6401 18.72 8.99006 15.85L8.35006 14.75C8.16006 14.42 8.40006 14 8.79006 14Z" />
</svg>

<?xml version="1.0" encoding="UTF-8"?>
<svg width="24" height="24" viewBox="0 0 24 24" xmlns="http://www.w3.org/2000/svg">
 <path d="m9.3302 6h5.34c3.32 0 4.67 2.35 3.02 5.22l-0.74 1.28c-0.18 0.31-0.51 0.5-0.87 0.5h-8.16c-0.36 0-0.69-0.19-0.87-0.5l-0.74-1.28c-1.65-2.87-0.3-5.22 3.02-5.22z"/>
 <path d="m8.7901 14h6.43c0.39 0 0.63 0.42 0.43 0.75l-0.64 1.1c-1.65 2.87-4.37 2.87-6.02 0l-0.64-1.1c-0.19-0.33 0.05-0.75 0.44-0.75z" opacity=".4"/>
</svg>
